X: 11046
T: Dublin Porter, The
R: reel
M: 4/4
K: Gmajor
B4 B4|(3BcB AB cdef|d3d dcAG|FDAD BDAF|
DG~G3 B4|(3BcB AB cdef|g3fg ecAF|1 ~G2GF G4:|2 ~G2GF G2Bd||
g3g gdBd|g2fg eAAA|eAAA eAef|gbaf gfed:|

